resources/haticons/SVG/supervisor_account.svg

<!-- Generated by IcoMoon.io -->
<svg version="1.1" xmlns="http://www.w3.org/2000/svg" width="24" height="24" viewBox="0 0 24 24">
<title>supervisor_account</title>
<path d="M9 12.984q1.031 0 2.391 0.281-2.391 1.313-2.391 3.469v2.25h-6.984v-2.484q0-1.078 1.289-1.922t2.836-1.219 2.859-0.375zM16.5 14.016q1.734 0 3.609 0.75t1.875 1.969v2.25h-10.969v-2.25q0-1.219 1.875-1.969t3.609-0.75zM9 11.016q-1.219 0-2.109-0.891t-0.891-2.109 0.891-2.109 2.109-0.891 2.109 0.891 0.891 2.109-0.891 2.109-2.109 0.891zM16.5 12q-1.031 0-1.758-0.727t-0.727-1.758 0.727-1.781 1.758-0.75 1.758 0.75 0.727 1.781-0.727 1.758-1.758 0.727z"></path>
</svg>

<svg xmlns="http://www.w3.org/2000/svg" width="24" height="24"><path d="M9 12.984q1.031 0 2.391.281Q9 14.578 9 16.734v2.25H2.016V16.5q0-1.078 1.289-1.922t2.836-1.219T9 12.984zm7.5 1.032q1.734 0 3.609.75t1.875 1.969v2.25H11.015v-2.25q0-1.219 1.875-1.969t3.609-.75zm-7.5-3q-1.219 0-2.109-.891T6 8.016t.891-2.109T9 5.016t2.109.891T12 8.016t-.891 2.109T9 11.016zm7.5.984q-1.031 0-1.758-.727t-.727-1.758.727-1.781 1.758-.75 1.758.75.727 1.781-.727 1.758T16.5 12z"/></svg>
